; generated by Slic3r 1.3.0 on 2020-08-19 at 12:41:19

; external perimeters extrusion width = 0.44mm (3.38mm^3/s)
; perimeters extrusion width = 0.48mm (7.54mm^3/s)
; infill extrusion width = 0.48mm (10.05mm^3/s)
; solid infill extrusion width = 0.48mm (2.51mm^3/s)
; top infill extrusion width = 0.48mm (1.88mm^3/s)

M107
M104 S255 ; set temperature
G28 ; home all axes
G1 Z5 F5000 ; lift nozzle

; Filament gcode

M109 S255 ; set temperature and wait for it to be reached
G21 ; set units to millimeters
G90 ; use absolute coordinates
M82 ; use absolute distances for extrusion
G92 E0
G1 Z0.350 F7800.000
G1 E-2.00000 F2400.00000
G92 E0
G1 X25.086 Y12.619 F7800.000
G1 E2.00000 F2400.00000
G1 F1800
G1 X26.236 Y10.635 E2.20854
G1 X27.994 Y9.162 E2.41708
G1 X30.148 Y8.376 E2.62563
G1 X31.306 Y8.274 E2.73133
G1 X81.598 Y8.274 E7.30436
G1 X83.857 Y8.671 E7.51291
G1 X85.845 Y9.814 E7.72145
G1 X87.324 Y11.567 E7.92999
G1 X88.117 Y13.719 E8.13853
G1 X88.223 Y14.877 E8.24424
G1 X88.477 Y90.990 E15.16518
G1 X88.477 Y95.671 E15.59085
G1 X88.080 Y97.930 E15.79940
G1 X86.937 Y99.918 E16.00794
G1 X85.184 Y101.397 E16.21648
G1 X83.032 Y102.190 E16.42502
G1 X81.852 Y102.296 E16.53273
G1 X31.052 Y102.296 E21.15195
G1 X28.794 Y101.899 E21.36050
G1 X26.805 Y100.756 E21.56904
G1 X25.326 Y99.003 E21.77758
G1 X24.533 Y96.851 E21.98612
G1 X24.427 Y95.671 E22.09383
G1 X24.428 Y90.990 E22.51951
G1 X24.682 Y14.877 E29.44045
G1 X25.075 Y12.678 E29.64353
G1 E27.64353 F2400.00000
G92 E0
G1 X78.774 Y92.612 F7800.000
G1 E2.00000 F2400.00000
G1 F1800
G1 X80.253 Y92.612 E2.13445
G1 X80.253 Y94.071 E2.26718
G1 X78.774 Y94.071 E2.40163
G1 X78.774 Y92.672 E2.52890
G1 X78.149 Y91.987 F7800.000
G1 F1800
G1 X80.877 Y91.987 E2.77700
G1 X80.877 Y94.696 E3.02337
G1 X78.149 Y94.696 E3.27146
G1 X78.149 Y92.047 E3.51237
G1 X77.524 Y91.362 F7800.000
G1 F1800
G1 X81.502 Y91.362 E3.87411
G1 X81.502 Y95.321 E4.23412
G1 X77.524 Y95.321 E4.59585
G1 X77.524 Y91.422 E4.95041
G1 X77.911 Y91.465 F7800.000
G1 E2.95041 F2400.00000
G92 E0
G1 X34.131 Y92.612 F7800.000
G1 E2.00000 F2400.00000
G1 F1800
G1 X34.131 Y94.071 E2.13273
G1 X32.652 Y94.071 E2.26718
G1 X32.652 Y92.612 E2.39991
G1 X34.071 Y92.612 E2.52890
G1 X34.756 Y91.987 F7800.000
G1 F1800
G1 X34.756 Y94.696 E2.77527
G1 X32.027 Y94.696 E3.02337
G1 X32.027 Y91.987 E3.26974
G1 X34.696 Y91.987 E3.51237
G1 X35.381 Y91.362 F7800.000
G1 F1800
G1 X35.381 Y95.321 E3.87239
G1 X31.402 Y95.321 E4.23412
G1 X31.402 Y91.362 E4.59413
G1 X35.321 Y91.362 E4.95041
G1 X35.277 Y91.748 F7800.000
G1 E2.95041 F2400.00000
G92 E0
G1 X33.771 Y17.363 F7800.000
G1 E2.00000 F2400.00000
G1 F1800
G1 X32.906 Y17.363 E2.07860
G1 X32.906 Y16.499 E2.15721
G1 X33.771 Y16.499 E2.23581
G1 X33.771 Y17.303 E2.30896
G1 X34.395 Y17.988 F7800.000
G1 F1800
G1 X32.281 Y17.988 E2.50120
G1 X32.281 Y15.874 E2.69345
G1 X34.395 Y15.874 E2.88570
G1 X34.395 Y17.928 E3.07249
G1 X35.020 Y18.613 F7800.000
G1 F1800
G1 X31.656 Y18.613 E3.37837
G1 X31.656 Y15.249 E3.68426
G1 X35.020 Y15.249 E3.99015
G1 X35.020 Y18.553 E4.29058
G1 X34.634 Y18.510 F7800.000
G1 E2.29058 F2400.00000
G92 E0
G1 X79.134 Y17.363 F7800.000
G1 E2.00000 F2400.00000
G1 F1800
G1 X79.134 Y16.499 E2.07860
G1 X79.999 Y16.499 E2.15721
G1 X79.999 Y17.363 E2.23581
G1 X79.194 Y17.363 E2.30896
G1 X78.509 Y17.988 F7800.000
G1 F1800
G1 X78.509 Y15.874 E2.50120
G1 X80.623 Y15.874 E2.69345
G1 X80.623 Y17.988 E2.88570
G1 X78.569 Y17.988 E3.07248
G1 X77.884 Y18.613 F7800.000
G1 F1800
G1 X77.884 Y15.249 E3.37837
G1 X81.248 Y15.249 E3.68426
G1 X81.248 Y18.613 E3.99015
G1 X77.944 Y18.613 E4.29058
G1 X77.988 Y18.227 F7800.000
M104 S250 ; set temperature
G1 Z0.650 F7800.000
G1 E2.29058 F2400.00000
G92 E0
G1 X78.210 Y92.048 F7800.000
G1 E2.00000 F2400.00000
G1 F900
G1 X80.816 Y92.048 E2.13615
G1 X80.816 Y94.635 E2.27130
G1 X78.210 Y94.635 E2.40745
G1 X78.210 Y92.108 E2.53947
G1 X77.791 Y91.629 F7800.000
G1 F900
G1 X81.235 Y91.629 E2.71939
G1 X81.235 Y95.054 E2.89831
G1 X77.791 Y95.054 E3.07823
G1 X77.791 Y91.689 E3.25402
G1 X77.394 Y91.232 F7800.000
G1 F900
G1 X81.632 Y91.232 E3.45257
G1 X81.632 Y95.451 E3.65024
G1 X77.394 Y95.451 E3.84880
G1 X77.394 Y91.292 E4.04366
G1 X77.781 Y91.335 F7800.000
G1 X78.792 Y94.379 F7800.000
G1 F1200
G1 X78.466 Y94.053 E4.07224
G1 X78.466 Y93.350 E4.11588
G1 X79.496 Y94.379 E4.20620
G1 X80.199 Y94.379 E4.24984
G1 X78.466 Y92.646 E4.40187
G1 X78.466 Y92.304 E4.42311
G1 X78.827 Y92.304 E4.44551
G1 X80.560 Y94.037 E4.59755
G1 X80.560 Y93.333 E4.64119
G1 X79.531 Y92.304 E4.73150
G1 X80.234 Y92.304 E4.77514
G1 X80.560 Y92.630 E4.80374
G1 E2.80374 F2400.00000
G92 E0
G1 X34.694 Y92.048 F7800.000
G1 E2.00000 F2400.00000
G1 F900
G1 X34.694 Y94.635 E2.13516
G1 X32.088 Y94.635 E2.27130
G1 X32.088 Y92.048 E2.40646
G1 X34.634 Y92.048 E2.53947
G1 X35.113 Y91.629 F7800.000
G1 F900
G1 X35.113 Y95.054 E2.71840
G1 X31.670 Y95.054 E2.89831
G1 X31.670 Y91.629 E3.07724
G1 X35.053 Y91.629 E3.25402
G1 X35.511 Y91.232 F7800.000
G1 F900
G1 X35.511 Y95.451 E3.45169
G1 X31.272 Y95.451 E3.65024
G1 X31.272 Y91.232 E3.84791
G1 X35.451 Y91.232 E4.04366
G1 X35.407 Y91.618 F7800.000
G1 X34.438 Y92.630 F7800.000
G1 F1200
G1 X34.113 Y92.304 E4.07225
G1 X33.409 Y92.304 E4.11590
G1 X34.438 Y93.333 E4.20621
G1 X34.438 Y94.037 E4.24985
G1 X32.706 Y92.304 E4.40189
G1 X32.344 Y92.304 E4.42429
G1 X32.344 Y92.646 E4.44553
G1 X34.077 Y94.379 E4.59756
G1 X33.374 Y94.379 E4.64120
G1 X32.344 Y93.350 E4.73152
G1 X32.344 Y94.053 E4.77516
G1 X32.670 Y94.379 E4.80374
G1 E2.80374 F2400.00000
G92 E0
G1 X34.334 Y17.927 F7800.000
G1 E2.00000 F2400.00000
G1 F900
G1 X32.342 Y17.927 E2.10406
G1 X32.342 Y15.935 E2.20812
G1 X34.334 Y15.935 E2.31218
G1 X34.334 Y17.867 E2.41310
G1 X34.753 Y18.346 F7800.000
G1 F900
G1 X31.924 Y18.346 E2.56093
G1 X31.924 Y15.516 E2.70875
G1 X34.753 Y15.516 E2.85658
G1 X34.753 Y18.286 E3.00127
G1 X35.150 Y18.743 F7800.000
G1 F900
G1 X31.526 Y18.743 E3.17106
G1 X31.526 Y15.119 E3.34084
G1 X35.150 Y15.119 E3.51062
G1 X35.150 Y18.683 E3.67759
G1 X34.764 Y18.640 F7800.000
G1 X34.078 Y16.517 F7800.000
G1 F1200
G1 X33.752 Y16.191 E3.70649
G1 X33.041 Y16.191 E3.75106
G1 X34.078 Y17.228 E3.84298
G1 X34.078 Y17.671 E3.87076
G1 X33.810 Y17.671 E3.88755
G1 X32.598 Y16.459 E3.99501
G1 X32.598 Y17.170 E4.03958
G1 X33.100 Y17.671 E4.08401
G1 X32.924 Y17.671 E4.09500
G1 X32.924 Y17.496 E4.10600
G1 E2.10600 F2400.00000
G92 E0
G1 X78.570 Y17.927 F7800.000
G1 E2.00000 F2400.00000
G1 F900
G1 X78.570 Y15.935 E2.10406
G1 X80.562 Y15.935 E2.20812
G1 X80.562 Y17.927 E2.31218
G1 X78.630 Y17.927 E2.41310
G1 X78.152 Y18.346 F7800.000
G1 F900
G1 X78.152 Y15.516 E2.56093
G1 X80.981 Y15.516 E2.70875
G1 X80.981 Y18.346 E2.85658
G1 X78.212 Y18.346 E3.00127
G1 X77.754 Y18.743 F7800.000
G1 F900
G1 X77.754 Y15.119 E3.17106
G1 X81.378 Y15.119 E3.34084
G1 X81.378 Y18.743 E3.51062
G1 X77.814 Y18.743 E3.67759
G1 X77.858 Y18.357 F7800.000
G1 X79.152 Y17.496 F7800.000
G1 F1200
G1 X79.152 Y17.671 E3.68858
G1 X79.328 Y17.671 E3.69957
G1 X78.826 Y17.170 E3.74401
G1 X78.826 Y16.459 E3.78857
G1 X80.038 Y17.671 E3.89603
G1 X80.306 Y17.671 E3.91283
G1 X80.306 Y17.228 E3.94060
G1 X79.269 Y16.191 E4.03253
G1 X79.980 Y16.191 E4.07709
G1 X80.306 Y16.517 E4.10599
G1 Z0.950 F7800.000
G1 E2.10599 F2400.00000
G92 E0
G1 X78.210 Y92.048 F7800.000
G1 E2.00000 F2400.00000
G1 F900
G1 X80.816 Y92.048 E2.13615
G1 X80.816 Y94.635 E2.27130
G1 X78.210 Y94.635 E2.40745
G1 X78.210 Y92.108 E2.53947
G1 X77.791 Y91.629 F7800.000
G1 F900
G1 X81.235 Y91.629 E2.71939
G1 X81.235 Y95.054 E2.89831
G1 X77.791 Y95.054 E3.07823
G1 X77.791 Y91.689 E3.25402
G1 X77.394 Y91.232 F7800.000
G1 F900
G1 X81.632 Y91.232 E3.45257
G1 X81.632 Y95.451 E3.65024
G1 X77.394 Y95.451 E3.84880
G1 X77.394 Y91.292 E4.04366
G1 X77.781 Y91.335 F7800.000
G1 X78.466 Y92.630 F7800.000
G1 F1200
G1 X78.792 Y92.304 E4.07224
G1 X79.496 Y92.304 E4.11588
G1 X78.466 Y93.333 E4.20620
G1 X78.466 Y94.037 E4.24984
G1 X80.199 Y92.304 E4.40187
G1 X80.560 Y92.304 E4.42428
G1 X80.560 Y92.646 E4.44551
G1 X78.827 Y94.379 E4.59755
G1 X79.531 Y94.379 E4.64119
G1 X80.560 Y93.350 E4.73150
G1 X80.560 Y94.053 E4.77514
G1 X80.234 Y94.379 E4.80374
G1 E2.80374 F2400.00000
G92 E0
G1 X34.694 Y92.048 F7800.000
G1 E2.00000 F2400.00000
G1 F900
G1 X34.694 Y94.635 E2.13516
G1 X32.088 Y94.635 E2.27130
G1 X32.088 Y92.048 E2.40646
G1 X34.634 Y92.048 E2.53947
G1 X35.113 Y91.629 F7800.000
G1 F900
G1 X35.113 Y95.054 E2.71840
G1 X31.670 Y95.054 E2.89831
G1 X31.670 Y91.629 E3.07724
G1 X35.053 Y91.629 E3.25402
G1 X35.511 Y91.232 F7800.000
G1 F900
G1 X35.511 Y95.451 E3.45169
G1 X31.272 Y95.451 E3.65024
G1 X31.272 Y91.232 E3.84791
G1 X35.451 Y91.232 E4.04366
G1 X35.407 Y91.618 F7800.000
G1 X32.345 Y92.630 F7800.000
G1 F1200
G1 X32.670 Y92.304 E4.07224
G1 X33.374 Y92.304 E4.11588
G1 X32.344 Y93.333 E4.20620
G1 X32.344 Y94.037 E4.24984
G1 X34.077 Y92.304 E4.40187
G1 X34.438 Y92.304 E4.42428
G1 X34.438 Y92.646 E4.44551
G1 X32.706 Y94.379 E4.59755
G1 X33.409 Y94.379 E4.64119
G1 X34.438 Y93.350 E4.73150
G1 X34.438 Y94.053 E4.77515
G1 X34.113 Y94.379 E4.80374
G1 E2.80374 F2400.00000
G92 E0
G1 X34.334 Y17.927 F7800.000
G1 E2.00000 F2400.00000
G1 F900
G1 X32.342 Y17.927 E2.10406
G1 X32.342 Y15.935 E2.20812
G1 X34.334 Y15.935 E2.31218
G1 X34.334 Y17.867 E2.41310
G1 X34.753 Y18.346 F7800.000
G1 F900
G1 X31.924 Y18.346 E2.56093
G1 X31.924 Y15.516 E2.70875
G1 X34.753 Y15.516 E2.85658
G1 X34.753 Y18.286 E3.00127
G1 X35.150 Y18.743 F7800.000
G1 F900
G1 X31.526 Y18.743 E3.17106
G1 X31.526 Y15.119 E3.34084
G1 X35.150 Y15.119 E3.51062
G1 X35.150 Y18.683 E3.67759
G1 X34.764 Y18.640 F7800.000
G1 X33.752 Y17.671 F7800.000
G1 F1200
G1 X34.078 Y17.345 E3.70649
G1 X34.078 Y16.634 E3.75106
G1 X33.041 Y17.671 E3.84298
G1 X32.598 Y17.671 E3.87076
G1 X32.598 Y17.403 E3.88755
G1 X33.810 Y16.191 E3.99501
G1 X33.100 Y16.191 E4.03958
G1 X32.598 Y16.692 E4.08401
G1 X32.598 Y16.517 E4.09500
G1 X32.774 Y16.517 E4.10599
G1 E2.10599 F2400.00000
G92 E0
G1 X78.570 Y17.927 F7800.000
G1 E2.00000 F2400.00000
G1 F900
G1 X78.570 Y15.935 E2.10406
G1 X80.562 Y15.935 E2.20812
G1 X80.562 Y17.927 E2.31218
G1 X78.630 Y17.927 E2.41310
G1 X78.152 Y18.346 F7800.000
G1 F900
G1 X78.152 Y15.516 E2.56093
G1 X80.981 Y15.516 E2.70875
G1 X80.981 Y18.346 E2.85658
G1 X78.212 Y18.346 E3.00127
G1 X77.754 Y18.743 F7800.000
G1 F900
G1 X77.754 Y15.119 E3.17106
G1 X81.378 Y15.119 E3.34084
G1 X81.378 Y18.743 E3.51062
G1 X77.814 Y18.743 E3.67759
G1 X77.858 Y18.357 F7800.000
G1 X79.980 Y17.671 F7800.000
G1 F1200
G1 X80.306 Y17.345 E3.70649
G1 X80.306 Y16.634 E3.75106
G1 X79.269 Y17.671 E3.84298
G1 X78.826 Y17.671 E3.87076
G1 X78.826 Y17.403 E3.88755
G1 X80.038 Y16.191 E3.99501
G1 X79.328 Y16.191 E4.03958
G1 X78.826 Y16.692 E4.08401
G1 X78.826 Y16.517 E4.09500
G1 X79.002 Y16.517 E4.10599
M106 S232.05
G1 Z1.250 F7800.000
G1 E2.10599 F2400.00000
G92 E0
G1 X78.210 Y92.048 F7800.000
G1 E2.00000 F2400.00000
G1 F900
G1 X80.816 Y92.048 E2.13615
G1 X80.816 Y94.635 E2.27130
G1 X78.210 Y94.635 E2.40745
G1 X78.210 Y92.108 E2.53947
G1 X77.791 Y91.629 F7800.000
G1 F900
G1 X81.235 Y91.629 E2.71939
G1 X81.235 Y95.054 E2.89831
G1 X77.791 Y95.054 E3.07823
G1 X77.791 Y91.689 E3.25402
G1 X77.394 Y91.232 F7800.000
G1 F900
G1 X81.632 Y91.232 E3.45257
G1 X81.632 Y95.451 E3.65024
G1 X77.394 Y95.451 E3.84880
G1 X77.394 Y91.292 E4.04366
G1 X77.781 Y91.335 F7800.000
G1 X78.792 Y94.379 F7800.000
G1 F1200
G1 X78.466 Y94.053 E4.07224
G1 X78.466 Y93.350 E4.11588
G1 X79.496 Y94.379 E4.20620
G1 X80.199 Y94.379 E4.24984
G1 X78.466 Y92.646 E4.40187
G1 X78.466 Y92.304 E4.42310
G1 X78.827 Y92.304 E4.44551
G1 X80.560 Y94.037 E4.59754
G1 X80.560 Y93.333 E4.64118
G1 X79.531 Y92.304 E4.73149
G1 X80.234 Y92.304 E4.77513
G1 X80.560 Y92.630 E4.80373
G1 E2.80373 F2400.00000
G92 E0
G1 X34.694 Y92.048 F7800.000
G1 E2.00000 F2400.00000
G1 F900
G1 X34.694 Y94.635 E2.13516
G1 X32.088 Y94.635 E2.27130
G1 X32.088 Y92.048 E2.40646
G1 X34.634 Y92.048 E2.53947
G1 X35.113 Y91.629 F7800.000
G1 F900
G1 X35.113 Y95.054 E2.71840
G1 X31.670 Y95.054 E2.89831
G1 X31.670 Y91.629 E3.07724
G1 X35.053 Y91.629 E3.25402
G1 X35.511 Y91.232 F7800.000
G1 F900
G1 X35.511 Y95.451 E3.45169
G1 X31.272 Y95.451 E3.65024
G1 X31.272 Y91.232 E3.84791
G1 X35.451 Y91.232 E4.04366
G1 X35.407 Y91.618 F7800.000
G1 X34.438 Y92.630 F7800.000
G1 F1200
G1 X34.113 Y92.304 E4.07225
G1 X33.409 Y92.304 E4.11589
G1 X34.438 Y93.333 E4.20621
G1 X34.438 Y94.037 E4.24985
G1 X32.706 Y92.304 E4.40188
G1 X32.344 Y92.304 E4.42429
G1 X32.344 Y92.646 E4.44552
G1 X34.077 Y94.379 E4.59755
G1 X33.374 Y94.379 E4.64119
G1 X32.344 Y93.350 E4.73150
G1 X32.344 Y94.053 E4.77514
G1 X32.670 Y94.379 E4.80373
G1 E2.80373 F2400.00000
G92 E0
G1 X34.334 Y17.927 F7800.000
G1 E2.00000 F2400.00000
G1 F900
G1 X32.342 Y17.927 E2.10406
G1 X32.342 Y15.935 E2.20812
G1 X34.334 Y15.935 E2.31218
G1 X34.334 Y17.867 E2.41310
G1 X34.753 Y18.346 F7800.000
G1 F900
G1 X31.924 Y18.346 E2.56093
G1 X31.924 Y15.516 E2.70875
G1 X34.753 Y15.516 E2.85658
G1 X34.753 Y18.286 E3.00127
G1 X35.150 Y18.743 F7800.000
G1 F900
G1 X31.526 Y18.743 E3.17106
G1 X31.526 Y15.119 E3.34084
G1 X35.150 Y15.119 E3.51062
G1 X35.150 Y18.683 E3.67759
G1 X34.764 Y18.640 F7800.000
G1 X34.078 Y16.517 F7800.000
G1 F1200
G1 X33.752 Y16.191 E3.70649
G1 X33.041 Y16.191 E3.75106
G1 X34.078 Y17.228 E3.84298
G1 X34.078 Y17.671 E3.87076
G1 X33.810 Y17.671 E3.88755
G1 X32.598 Y16.459 E3.99501
G1 X32.598 Y17.170 E4.03957
G1 X33.100 Y17.671 E4.08400
G1 X32.924 Y17.671 E4.09499
G1 X32.924 Y17.496 E4.10598
G1 E2.10598 F2400.00000
G92 E0
G1 X78.570 Y17.927 F7800.000
G1 E2.00000 F2400.00000
G1 F900
G1 X78.570 Y15.935 E2.10406
G1 X80.562 Y15.935 E2.20812
G1 X80.562 Y17.927 E2.31218
G1 X78.630 Y17.927 E2.41310
G1 X78.152 Y18.346 F7800.000
G1 F900
G1 X78.152 Y15.516 E2.56093
G1 X80.981 Y15.516 E2.70875
G1 X80.981 Y18.346 E2.85658
G1 X78.212 Y18.346 E3.00127
G1 X77.754 Y18.743 F7800.000
G1 F900
G1 X77.754 Y15.119 E3.17106
G1 X81.378 Y15.119 E3.34084
G1 X81.378 Y18.743 E3.51062
G1 X77.814 Y18.743 E3.67759
G1 X77.858 Y18.357 F7800.000
G1 X79.152 Y17.496 F7800.000
G1 F1200
G1 X79.152 Y17.671 E3.68858
G1 X79.328 Y17.671 E3.69957
G1 X78.826 Y17.170 E3.74400
G1 X78.826 Y16.459 E3.78857
G1 X80.038 Y17.671 E3.89602
G1 X80.306 Y17.671 E3.91282
G1 X80.306 Y17.228 E3.94059
G1 X79.269 Y16.191 E4.03252
G1 X79.980 Y16.191 E4.07708
G1 X80.306 Y16.517 E4.10598
G1 Z1.550 F7800.000
G1 E2.10598 F2400.00000
G92 E0
G1 X78.210 Y92.048 F7800.000
G1 E2.00000 F2400.00000
G1 F900
G1 X80.816 Y92.048 E2.13615
G1 X80.816 Y94.635 E2.27130
G1 X78.210 Y94.635 E2.40745
G1 X78.210 Y92.108 E2.53947
G1 X77.791 Y91.629 F7800.000
G1 F900
G1 X81.235 Y91.629 E2.71939
G1 X81.235 Y95.054 E2.89831
G1 X77.791 Y95.054 E3.07823
G1 X77.791 Y91.689 E3.25402
G1 X77.394 Y91.232 F7800.000
G1 F900
G1 X81.632 Y91.232 E3.45257
G1 X81.632 Y95.451 E3.65024
G1 X77.394 Y95.451 E3.84880
G1 X77.394 Y91.292 E4.04366
G1 X77.781 Y91.335 F7800.000
G1 X78.466 Y92.630 F7800.000
G1 F1200
G1 X78.792 Y92.304 E4.07224
G1 X79.496 Y92.304 E4.11588
G1 X78.466 Y93.333 E4.20620
G1 X78.466 Y94.037 E4.24984
G1 X80.199 Y92.304 E4.40187
G1 X80.560 Y92.304 E4.42427
G1 X80.560 Y92.646 E4.44550
G1 X78.827 Y94.379 E4.59754
G1 X79.531 Y94.379 E4.64117
G1 X80.560 Y93.350 E4.73149
G1 X80.560 Y94.053 E4.77513
G1 X80.234 Y94.379 E4.80373
G1 E2.80373 F2400.00000
G92 E0
G1 X34.694 Y92.048 F7800.000
G1 E2.00000 F2400.00000
G1 F900
G1 X34.694 Y94.635 E2.13516
G1 X32.088 Y94.635 E2.27130
G1 X32.088 Y92.048 E2.40646
G1 X34.634 Y92.048 E2.53947
G1 X35.113 Y91.629 F7800.000
G1 F900
